dde/zh_CN/icon/Up.svg

<?xml version="1.0" encoding="iso-8859-1"?>
<!-- Generator: Adobe Illustrator 18.0.0, SVG Export Plug-In . SVG Version: 6.00 Build 0)  -->
<!DOCTYPE svg PUBLIC "-//W3C//DTD SVG 1.1//EN" "http://www.w3.org/Graphics/SVG/1.1/DTD/svg11.dtd">
<svg version="1.1" id="&#x56FE;&#x5C42;_1" xmlns="http://www.w3.org/2000/svg" xmlns:xlink="http://www.w3.org/1999/xlink" x="0px"
	 y="0px" viewBox="0 0 30 20" enable-background="new 0 0 30 20" xml:space="preserve">
<g>
	<path opacity="0.1" fill="#FFFFFF" d="M25.667,19.5H4.333c-2.108,0-3.833-1.725-3.833-3.833V4.333C0.5,2.225,2.225,0.5,4.333,0.5
		h21.334c2.108,0,3.833,1.725,3.833,3.833v11.334C29.5,17.775,27.775,19.5,25.667,19.5z"/>
	<g>
		<path fill="none" stroke="#CBCBCB" stroke-miterlimit="10" d="M25.5,19.5h-21c-2.209,0-4-1.791-4-4v-11c0-2.209,1.791-4,4-4h21
			c2.209,0,4,1.791,4,4v11C29.5,17.709,27.709,19.5,25.5,19.5z"/>
	</g>
</g>
<g>
	<path d="M8,3H7H6v6h1V7h1c1.104,0,2-0.895,2-2v0C10,3.895,9.105,3,8,3z M8,6H7V4h1c0.552,0,1,0.448,1,1S8.552,6,8,6z"/>
	<path d="M10.472,5.361c0.493-0.244,1.061-0.365,1.706-0.365c1.194,0,1.791,0.496,1.791,1.489v2.525L13.031,9V8.394
		c0,0-0.359,0.708-1.471,0.708c-0.48,0-0.863-0.103-1.146-0.308C10.13,8.587,9.988,8.31,9.988,7.96c0-0.733,0.547-1.159,1.643-1.28
		l1.4-0.172c0-0.641-0.266-0.745-0.934-0.745c-0.594,0-1.136,0.159-1.625,0.475V5.361z M11.94,7.166
		c-0.406,0.043-0.686,0.123-0.84,0.241C10.948,7.525,10.87,7.69,10.87,7.903c0,0.187,0.084,0.34,0.251,0.457
		c0.167,0.118,0.388,0.177,0.663,0.177c0.382,0,0.697-0.106,0.945-0.319c0.247-0.213,0.303-0.489,0.303-0.811V7.032L11.94,7.166z"/>
	<path d="M19.02,8.775c0,1.49-0.776,2.235-2.328,2.235c-0.536,0-1.003-0.094-1.398-0.28l0.031-0.928
		c0.481,0.25,0.749,0.396,1.191,0.396c1.05,0,1.543-0.275,1.543-1.304l0.021-0.239c-0.475,0.423-0.737,0.508-1.31,0.552
		c-0.54,0.042-0.976-0.181-1.301-0.542c-0.325-0.361-0.488-0.841-0.488-1.438c0-0.687,0.154-1.256,0.539-1.633
		c0.268-0.263,0.668-0.611,1.438-0.602c0.559,0.006,0.823,0.188,1.105,0.413l0.009-0.313l0.948-0.006V8.775z M18.07,6.688
		c0.003-0.31-0.109-0.578-0.336-0.801c-0.227-0.223-0.906-0.497-1.625,0.123c-0.278,0.24-0.348,0.676-0.348,1.174
		c0,0.427,0.078,0.805,0.336,1.037c0.621,0.56,1.384,0.24,1.621-0.012c0.237-0.252,0.354-0.572,0.352-0.961V6.688z"/>
	<path d="M24,7.313h-3.138c0,0-0.002,1,1.326,1.021c0.503,0.008,1.066-0.17,1.484-0.443l0.008,0.741
		c-0.394,0.237-0.917,0.355-1.569,0.355c-0.649,0-1.155-0.175-1.518-0.524c-0.364-0.349-0.545-0.834-0.545-1.455
		c0-0.583,0.2-1.065,0.598-1.445c0.398-0.379,0.894-0.569,1.486-0.569C23.5,4.994,24,6.245,24,6.821V7.313z M23.205,6.621
		C23.202,6.277,22.766,5.7,22.109,5.7c-0.547,0-1.248,0.472-1.248,0.921H23.205z"/>
	<path d="M9,11v3.005c0,0.558-0.275,1.011-1,1.011s-1-0.453-1-1.011V11H6v3.005C6,15.171,6.778,16,8,16c1.184,0,2-0.829,2-1.995V11
		H9z"/>
	<path d="M13.24,11.98c-0.486,0-0.924,0.23-1.24,0.599V12h-1v6h1v-2.619c0.316,0.369,0.754,0.599,1.24,0.599
		c0.961,0,1.74-0.895,1.74-2S14.201,11.98,13.24,11.98z M13.075,15.25c-0.593,0-1.075-0.569-1.075-1.271
		c0-0.702,0.481-1.271,1.075-1.271s1.075,0.569,1.075,1.271C14.149,14.681,13.668,15.25,13.075,15.25z"/>
</g>
</svg>

<?xml version="1.0" encoding="UTF-8" standalone="no"?>
<!-- Generator: Adobe Illustrator 18.0.0, SVG Export Plug-In . SVG Version: 6.00 Build 0)  -->

<svg
   xmlns:dc="http://purl.org/dc/elements/1.1/"
   xmlns:cc="http://creativecommons.org/ns#"
   xmlns:rdf="http://www.w3.org/1999/02/22-rdf-syntax-ns#"
   xmlns:svg="http://www.w3.org/2000/svg"
   xmlns="http://www.w3.org/2000/svg"
   xmlns:sodipodi="http://sodipodi.sourceforge.net/DTD/sodipodi-0.dtd"
   xmlns:inkscape="http://www.inkscape.org/namespaces/inkscape"
   version="1.1"
   id="图层_1"
   x="0px"
   y="0px"
   viewBox="0 0 30 20"
   enable-background="new 0 0 30 20"
   xml:space="preserve"
   sodipodi:docname="Up.svg"
   width="30"
   height="20"
   inkscape:version="0.92.1 r15371"><metadata
     id="metadata29"><rdf:RDF><cc:Work
         rdf:about=""><dc:format>image/svg+xml</dc:format><dc:type
           rdf:resource="http://purl.org/dc/dcmitype/StillImage" /><dc:title></dc:title></cc:Work></rdf:RDF></metadata><defs
     id="defs27" /><sodipodi:namedview
     pagecolor="#ffffff"
     bordercolor="#666666"
     borderopacity="1"
     objecttolerance="10"
     gridtolerance="10"
     guidetolerance="10"
     inkscape:pageopacity="0"
     inkscape:pageshadow="2"
     inkscape:window-width="836"
     inkscape:window-height="480"
     id="namedview25"
     showgrid="false"
     fit-margin-top="0"
     fit-margin-left="0"
     fit-margin-right="0"
     fit-margin-bottom="0"
     inkscape:zoom="10.7"
     inkscape:cx="15"
     inkscape:cy="10"
     inkscape:window-x="0"
     inkscape:window-y="0"
     inkscape:window-maximized="0"
     inkscape:current-layer="图层_1" /><g
     id="g8"><path
       d="M 25.667,19.5 H 4.333 C 2.225,19.5 0.5,17.775 0.5,15.667 V 4.333 C 0.5,2.225 2.225,0.5 4.333,0.5 h 21.334 c 2.108,0 3.833,1.725 3.833,3.833 v 11.334 c 0,2.108 -1.725,3.833 -3.833,3.833 z"
       id="path2"
       inkscape:connector-curvature="0"
       style="opacity:0.1;fill:#ffffff" /><g
       id="g6"><path
         stroke-miterlimit="10"
         d="m 25.5,19.5 h -21 c -2.209,0 -4,-1.791 -4,-4 v -11 c 0,-2.209 1.791,-4 4,-4 h 21 c 2.209,0 4,1.791 4,4 v 11 c 0,2.209 -1.791,4 -4,4 z"
         id="path4"
         inkscape:connector-curvature="0"
         style="fill:none;stroke:#cbcbcb;stroke-miterlimit:10" /></g></g><g
     id="g22"><path
       d="M 8,3 H 7 6 V 9 H 7 V 7 H 8 C 9.104,7 10,6.105 10,5 V 5 C 10,3.895 9.105,3 8,3 Z M 8,6 H 7 V 4 H 8 C 8.552,4 9,4.448 9,5 9,5.552 8.552,6 8,6 Z"
       id="path10"
       inkscape:connector-curvature="0" /><path
       d="m 10.472,5.361 c 0.493,-0.244 1.061,-0.365 1.706,-0.365 1.194,0 1.791,0.496 1.791,1.489 V 9.01 L 13.031,9 V 8.394 c 0,0 -0.359,0.708 -1.471,0.708 -0.48,0 -0.863,-0.103 -1.146,-0.308 C 10.13,8.587 9.988,8.31 9.988,7.96 c 0,-0.733 0.547,-1.159 1.643,-1.28 l 1.4,-0.172 c 0,-0.641 -0.266,-0.745 -0.934,-0.745 -0.594,0 -1.136,0.159 -1.625,0.475 z m 1.468,1.805 c -0.406,0.043 -0.686,0.123 -0.84,0.241 -0.152,0.118 -0.23,0.283 -0.23,0.496 0,0.187 0.084,0.34 0.251,0.457 0.167,0.118 0.388,0.177 0.663,0.177 0.382,0 0.697,-0.106 0.945,-0.319 0.247,-0.213 0.303,-0.489 0.303,-0.811 V 7.032 Z"
       id="path12"
       inkscape:connector-curvature="0" /><path
       d="m 19.02,8.775 c 0,1.49 -0.776,2.235 -2.328,2.235 -0.536,0 -1.003,-0.094 -1.398,-0.28 l 0.031,-0.928 c 0.481,0.25 0.749,0.396 1.191,0.396 1.05,0 1.543,-0.275 1.543,-1.304 L 18.08,8.655 C 17.605,9.078 17.343,9.163 16.77,9.207 16.23,9.249 15.794,9.026 15.469,8.665 15.144,8.304 14.981,7.824 14.981,7.227 c 0,-0.687 0.154,-1.256 0.539,-1.633 0.268,-0.263 0.668,-0.611 1.438,-0.602 0.559,0.006 0.823,0.188 1.105,0.413 L 18.072,5.092 19.02,5.086 Z M 18.07,6.688 C 18.073,6.378 17.961,6.11 17.734,5.887 17.507,5.664 16.828,5.39 16.109,6.01 c -0.278,0.24 -0.348,0.676 -0.348,1.174 0,0.427 0.078,0.805 0.336,1.037 0.621,0.56 1.384,0.24 1.621,-0.012 0.237,-0.252 0.354,-0.572 0.352,-0.961 z"
       id="path14"
       inkscape:connector-curvature="0" /><path
       d="m 24,7.313 h -3.138 c 0,0 -0.002,1 1.326,1.021 0.503,0.008 1.066,-0.17 1.484,-0.443 l 0.008,0.741 c -0.394,0.237 -0.917,0.355 -1.569,0.355 -0.649,0 -1.155,-0.175 -1.518,-0.524 -0.364,-0.349 -0.545,-0.834 -0.545,-1.455 0,-0.583 0.2,-1.065 0.598,-1.445 C 21.044,5.184 21.54,4.994 22.132,4.994 23.5,4.994 24,6.245 24,6.821 Z M 23.205,6.621 C 23.202,6.277 22.766,5.7 22.109,5.7 c -0.547,0 -1.248,0.472 -1.248,0.921 z"
       id="path16"
       inkscape:connector-curvature="0" /><path
       d="m 9,11 v 3.005 c 0,0.558 -0.275,1.011 -1,1.011 -0.725,0 -1,-0.453 -1,-1.011 V 11 H 6 v 3.005 C 6,15.171 6.778,16 8,16 c 1.184,0 2,-0.829 2,-1.995 V 11 Z"
       id="path18"
       inkscape:connector-curvature="0" /><path
       d="m 13.24,11.98 c -0.486,0 -0.924,0.23 -1.24,0.599 V 12 h -1 v 6 h 1 v -2.619 c 0.316,0.369 0.754,0.599 1.24,0.599 0.961,0 1.74,-0.895 1.74,-2 0,-1.105 -0.779,-2 -1.74,-2 z m -0.165,3.27 C 12.482,15.25 12,14.681 12,13.979 c 0,-0.702 0.481,-1.271 1.075,-1.271 0.594,0 1.075,0.569 1.075,1.271 -0.001,0.702 -0.482,1.271 -1.075,1.271 z"
       id="path20"
       inkscape:connector-curvature="0" /></g></svg>
